X:935
T:Paddy Fahey's
R:reel
Z:transcribed by Dave Marshall
M:C|
K:C
|: c2GF DEFD | G2DG BcdB | cBGA Bcde | f2ed cedB |
c2GF DEFD | G2DG BcdB | cBGA Bcdc | BGFD ECC2 :|
|: c2ge fdcd | cBGF DEFD | G~c3 gceg | fdcB GccB |
c2de fedc |BdGA _B3c |dggf defa |gfdc BGBd :|
